X:1
T:The Road to the Mull of Oa
M:6/8
L:1/8
Q:80
C:Hamilton Workman
S:Jig
K:HP
|: g{a}egag{a}e | \
g{a}eg{a}edB | \
{g}Ae{A}e{g}d{e}Bd |
{g}ege{g}dB{d}G | \
g{a}egag{a}e | \
g{a}eg{a}edB |
{g}Ae{A}e{g}d{e}Bd | \
{g}egf{g}fe{A}e :: \
a{g}a{g}afaf |
{g}fe{A}e{g}dB{d}G | \
{g}Ge{A}e{g}d{e}Bd | \
{g}ege{g}dB{d}G |
a{g}a{g}afaf | \
{g}fe{A}e{g}dB{d}G | \
{g}Ge{A}e{g}d{e}Bd |
{g}egf{g}fe{A}e :: \
{g}d{G}d{G}d{g}d{e}Bd | \
{g}Be{A}e{g}dB{d}G |
{a}ge{A}e{g}eg{f}g | \
{a}B{G}B{G}B{g}dB{d}G | \
{g}d{G}d{G}d{g}d{e}Bd |
{g}Be{A}e{g}dB{d}G | \
{g}Ge{A}e{g}d{e}Bd | \
{g}egf{g}fe{A}e ::
aGf{g}fe{A}e | \
gAe{g}dB{d}G | \
{g}Ge{A}e{g}d{e}Bd |
{g}ege{g}dB{d}G | \
aGf{g}fe{A}e | \
gAe{g}dB{d}G |
{g}Ge{A}e{g}d{e}Bd | \
{g}egf{g}fe{A}e :|
